src/helpers/heroicons/solid/tv.svg

<svg width="24" height="24" viewBox="0 0 24 24" fill="none" xmlns="http://www.w3.org/2000/svg">
<path d="M19.5 6H4.5V15H19.5V6Z" />
<path fill-rule="evenodd" clip-rule="evenodd" d="M3.375 3C2.33947 3 1.5 3.83947 1.5 4.875V16.125C1.5 17.1605 2.33947 18 3.375 18H9.75V19.5H6C5.58579 19.5 5.25 19.8358 5.25 20.25C5.25 20.6642 5.58579 21 6 21H18C18.4142 21 18.75 20.6642 18.75 20.25C18.75 19.8358 18.4142 19.5 18 19.5H14.25V18H20.625C21.6605 18 22.5 17.1605 22.5 16.125V4.875C22.5 3.83947 21.6605 3 20.625 3H3.375ZM3.375 16.5H20.625C20.8321 16.5 21 16.3321 21 16.125V4.875C21 4.66789 20.8321 4.5 20.625 4.5H3.375C3.16789 4.5 3 4.66789 3 4.875V16.125C3 16.3321 3.16789 16.5 3.375 16.5Z" />
</svg>

<svg xmlns="http://www.w3.org/2000/svg" viewBox="0 0 24 24" fill="currentColor" aria-hidden="true" data-slot="icon">
  <path d="M19.5 6h-15v9h15V6Z"/>
  <path fill-rule="evenodd" d="M3.375 3C2.339 3 1.5 3.84 1.5 4.875v11.25C1.5 17.16 2.34 18 3.375 18H9.75v1.5H6A.75.75 0 0 0 6 21h12a.75.75 0 0 0 0-1.5h-3.75V18h6.375c1.035 0 1.875-.84 1.875-1.875V4.875C22.5 3.839 21.66 3 20.625 3H3.375Zm0 13.5h17.25a.375.375 0 0 0 .375-.375V4.875a.375.375 0 0 0-.375-.375H3.375A.375.375 0 0 0 3 4.875v11.25c0 .207.168.375.375.375Z" clip-rule="evenodd"/>
</svg>
